static/img/kroki/a074502ca522289d108a3ed3c8ef1f34.svg

<?xml version="1.0" encoding="us-ascii" standalone="no"?><svg xmlns="http://www.w3.org/2000/svg" xmlns:xlink="http://www.w3.org/1999/xlink" contentStyleType="text/css" height="252px" preserveAspectRatio="none" style="width:2385px;height:252px;" version="1.1" viewBox="0 0 2385 252" width="2385px" zoomAndPan="magnify"><defs/><g><!--class gcp_vertex_ai_batch_prediction_job--><g id="elem_gcp_vertex_ai_batch_prediction_job"><rect codeLine="23" fill="#3D176E" height="39.7891" id="gcp_vertex_ai_batch_prediction_job" rx="2.5" ry="2.5" style="stroke:#000D19;stroke-width:0.5;" width="338" x="7" y="106.79"/><ellipse cx="22" cy="126.6845" fill="#ADD1B2" rx="11" ry="11" style="stroke:#181818;stroke-width:1.0;"/><path d="M24.9688,132.3252 Q24.3906,132.622 23.75,132.7627 Q23.1094,132.9189 22.4063,132.9189 Q19.9063,132.9189 18.5781,131.2783 Q17.2656,129.622 17.2656,126.497 Q17.2656,123.372 18.5781,121.7158 Q19.9063,120.0595 22.4063,120.0595 Q23.1094,120.0595 23.75,120.2158 Q24.4063,120.372 24.9688,120.6689 L24.9688,123.3877 Q24.3438,122.8095 23.75,122.5439 Q23.1563,122.2627 22.5313,122.2627 Q21.1875,122.2627 20.5,123.3408 Q19.8125,124.4033 19.8125,126.497 Q19.8125,128.5908 20.5,129.6689 Q21.1875,130.7314 22.5313,130.7314 Q23.1563,130.7314 23.75,130.4658 Q24.3438,130.1845 24.9688,129.6064 L24.9688,132.3252 Z " fill="#000000"/><text fill="#D9B8FF" font-family="Helvetica" font-size="17" lengthAdjust="spacing" textLength="296" x="41" y="132.5698">gcp_vertex_ai_batch_prediction_job</text></g><!--class gcp_vertex_ai_custom_job--><g id="elem_gcp_vertex_ai_custom_job"><rect codeLine="26" fill="#3D176E" height="39.7891" id="gcp_vertex_ai_custom_job" rx="2.5" ry="2.5" style="stroke:#000D19;stroke-width:0.5;" width="261" x="379.5" y="106.79"/><ellipse cx="394.5" cy="126.6845" fill="#ADD1B2" rx="11" ry="11" style="stroke:#181818;stroke-width:1.0;"/><path d="M397.4688,132.3252 Q396.8906,132.622 396.25,132.7627 Q395.6094,132.9189 394.9063,132.9189 Q392.4063,132.9189 391.0781,131.2783 Q389.7656,129.622 389.7656,126.497 Q389.7656,123.372 391.0781,121.7158 Q392.4063,120.0595 394.9063,120.0595 Q395.6094,120.0595 396.25,120.2158 Q396.9063,120.372 397.4688,120.6689 L397.4688,123.3877 Q396.8438,122.8095 396.25,122.5439 Q395.6563,122.2627 395.0313,122.2627 Q393.6875,122.2627 393,123.3408 Q392.3125,124.4033 392.3125,126.497 Q392.3125,128.5908 393,129.6689 Q393.6875,130.7314 395.0313,130.7314 Q395.6563,130.7314 396.25,130.4658 Q396.8438,130.1845 397.4688,129.6064 L397.4688,132.3252 Z " fill="#000000"/><text fill="#D9B8FF" font-family="Helvetica" font-size="17" lengthAdjust="spacing" textLength="219" x="413.5" y="132.5698">gcp_vertex_ai_custom_job</text></g><!--class gcp_vertex_ai_dataset--><g id="elem_gcp_vertex_ai_dataset"><rect codeLine="29" fill="#3D176E" height="39.7891" id="gcp_vertex_ai_dataset" rx="2.5" ry="2.5" style="stroke:#000D19;stroke-width:0.5;" width="228" x="676" y="106.79"/><ellipse cx="691" cy="126.6845" fill="#ADD1B2" rx="11" ry="11" style="stroke:#181818;stroke-width:1.0;"/><path d="M693.9688,132.3252 Q693.3906,132.622 692.75,132.7627 Q692.1094,132.9189 691.4063,132.9189 Q688.9063,132.9189 687.5781,131.2783 Q686.2656,129.622 686.2656,126.497 Q686.2656,123.372 687.5781,121.7158 Q688.9063,120.0595 691.4063,120.0595 Q692.1094,120.0595 692.75,120.2158 Q693.4063,120.372 693.9688,120.6689 L693.9688,123.3877 Q693.3438,122.8095 692.75,122.5439 Q692.1563,122.2627 691.5313,122.2627 Q690.1875,122.2627 689.5,123.3408 Q688.8125,124.4033 688.8125,126.497 Q688.8125,128.5908 689.5,129.6689 Q690.1875,130.7314 691.5313,130.7314 Q692.1563,130.7314 692.75,130.4658 Q693.3438,130.1845 693.9688,129.6064 L693.9688,132.3252 Z " fill="#000000"/><text fill="#D9B8FF" font-family="Helvetica" font-size="17" lengthAdjust="spacing" textLength="186" x="710" y="132.5698">gcp_vertex_ai_dataset</text></g><!--class gcp_vertex_ai_dataset_version--><g id="elem_gcp_vertex_ai_dataset_version"><rect codeLine="32" fill="#3D176E" height="39.7891" id="gcp_vertex_ai_dataset_version" rx="2.5" ry="2.5" style="stroke:#000D19;stroke-width:0.5;" width="298" x="724" y="206.58"/><ellipse cx="739" cy="226.4745" fill="#ADD1B2" rx="11" ry="11" style="stroke:#181818;stroke-width:1.0;"/><path d="M741.9688,232.1152 Q741.3906,232.412 740.75,232.5527 Q740.1094,232.7089 739.4063,232.7089 Q736.9063,232.7089 735.5781,231.0683 Q734.2656,229.412 734.2656,226.287 Q734.2656,223.162 735.5781,221.5058 Q736.9063,219.8495 739.4063,219.8495 Q740.1094,219.8495 740.75,220.0058 Q741.4063,220.162 741.9688,220.4589 L741.9688,223.1777 Q741.3438,222.5995 740.75,222.3339 Q740.1563,222.0527 739.5313,222.0527 Q738.1875,222.0527 737.5,223.1308 Q736.8125,224.1933 736.8125,226.287 Q736.8125,228.3808 737.5,229.4589 Q738.1875,230.5214 739.5313,230.5214 Q740.1563,230.5214 740.75,230.2558 Q741.3438,229.9745 741.9688,229.3964 L741.9688,232.1152 Z " fill="#000000"/><text fill="#D9B8FF" font-family="Helvetica" font-size="17" lengthAdjust="spacing" textLength="256" x="758" y="232.3598">gcp_vertex_ai_dataset_version</text></g><!--class gcp_vertex_ai_endpoint--><g id="elem_gcp_vertex_ai_endpoint"><rect codeLine="35" fill="#3D176E" height="39.7891" id="gcp_vertex_ai_endpoint" rx="2.5" ry="2.5" style="stroke:#000D19;stroke-width:0.5;" width="240" x="1010" y="106.79"/><ellipse cx="1025" cy="126.6845" fill="#ADD1B2" rx="11" ry="11" style="stroke:#181818;stroke-width:1.0;"/><path d="M1027.9688,132.3252 Q1027.3906,132.622 1026.75,132.7627 Q1026.1094,132.9189 1025.4063,132.9189 Q1022.9063,132.9189 1021.5781,131.2783 Q1020.2656,129.622 1020.2656,126.497 Q1020.2656,123.372 1021.5781,121.7158 Q1022.9063,120.0595 1025.4063,120.0595 Q1026.1094,120.0595 1026.75,120.2158 Q1027.4063,120.372 1027.9688,120.6689 L1027.9688,123.3877 Q1027.3438,122.8095 1026.75,122.5439 Q1026.1563,122.2627 1025.5313,122.2627 Q1024.1875,122.2627 1023.5,123.3408 Q1022.8125,124.4033 1022.8125,126.497 Q1022.8125,128.5908 1023.5,129.6689 Q1024.1875,130.7314 1025.5313,130.7314 Q1026.1563,130.7314 1026.75,130.4658 Q1027.3438,130.1845 1027.9688,129.6064 L1027.9688,132.3252 Z " fill="#000000"/><text fill="#D9B8FF" font-family="Helvetica" font-size="17" lengthAdjust="spacing" textLength="198" x="1044" y="132.5698">gcp_vertex_ai_endpoint</text></g><!--class gcp_vertex_ai_hyperparameter_tuning_job--><g id="elem_gcp_vertex_ai_hyperparameter_tuning_job"><rect codeLine="38" fill="#3D176E" height="39.7891" id="gcp_vertex_ai_hyperparameter_tuning_job" rx="2.5" ry="2.5" style="stroke:#000D19;stroke-width:0.5;" width="400" x="1285" y="106.79"/><ellipse cx="1300" cy="126.6845" fill="#ADD1B2" rx="11" ry="11" style="stroke:#181818;stroke-width:1.0;"/><path d="M1302.9688,132.3252 Q1302.3906,132.622 1301.75,132.7627 Q1301.1094,132.9189 1300.4063,132.9189 Q1297.9063,132.9189 1296.5781,131.2783 Q1295.2656,129.622 1295.2656,126.497 Q1295.2656,123.372 1296.5781,121.7158 Q1297.9063,120.0595 1300.4063,120.0595 Q1301.1094,120.0595 1301.75,120.2158 Q1302.4063,120.372 1302.9688,120.6689 L1302.9688,123.3877 Q1302.3438,122.8095 1301.75,122.5439 Q1301.1563,122.2627 1300.5313,122.2627 Q1299.1875,122.2627 1298.5,123.3408 Q1297.8125,124.4033 1297.8125,126.497 Q1297.8125,128.5908 1298.5,129.6689 Q1299.1875,130.7314 1300.5313,130.7314 Q1301.1563,130.7314 1301.75,130.4658 Q1302.3438,130.1845 1302.9688,129.6064 L1302.9688,132.3252 Z " fill="#000000"/><text fill="#D9B8FF" font-family="Helvetica" font-size="17" lengthAdjust="spacing" textLength="358" x="1319" y="132.5698">gcp_vertex_ai_hyperparameter_tuning_job</text></g><!--class gcp_vertex_ai_model--><g id="elem_gcp_vertex_ai_model"><rect codeLine="41" fill="#3D176E" height="39.7891" id="gcp_vertex_ai_model" rx="2.5" ry="2.5" style="stroke:#000D19;stroke-width:0.5;" width="218" x="934" y="7"/><ellipse cx="949" cy="26.8945" fill="#ADD1B2" rx="11" ry="11" style="stroke:#181818;stroke-width:1.0;"/><path d="M951.9688,32.5352 Q951.3906,32.832 950.75,32.9727 Q950.1094,33.1289 949.4063,33.1289 Q946.9063,33.1289 945.5781,31.4883 Q944.2656,29.832 944.2656,26.707 Q944.2656,23.582 945.5781,21.9258 Q946.9063,20.2695 949.4063,20.2695 Q950.1094,20.2695 950.75,20.4258 Q951.4063,20.582 951.9688,20.8789 L951.9688,23.5977 Q951.3438,23.0195 950.75,22.7539 Q950.1563,22.4727 949.5313,22.4727 Q948.1875,22.4727 947.5,23.5508 Q946.8125,24.6133 946.8125,26.707 Q946.8125,28.8008 947.5,29.8789 Q948.1875,30.9414 949.5313,30.9414 Q950.1563,30.9414 950.75,30.6758 Q951.3438,30.3945 951.9688,29.8164 L951.9688,32.5352 Z " fill="#000000"/><text fill="#D9B8FF" font-family="Helvetica" font-size="17" lengthAdjust="spacing" textLength="176" x="968" y="32.7798">gcp_vertex_ai_model</text></g><!--class gcp_vertex_ai_model_evaluation--><g id="elem_gcp_vertex_ai_model_evaluation"><rect codeLine="44" fill="#3D176E" height="39.7891" id="gcp_vertex_ai_model_evaluation" rx="2.5" ry="2.5" style="stroke:#000D19;stroke-width:0.5;" width="316" x="1720" y="106.79"/><ellipse cx="1735" cy="126.6845" fill="#ADD1B2" rx="11" ry="11" style="stroke:#181818;stroke-width:1.0;"/><path d="M1737.9688,132.3252 Q1737.3906,132.622 1736.75,132.7627 Q1736.1094,132.9189 1735.4063,132.9189 Q1732.9063,132.9189 1731.5781,131.2783 Q1730.2656,129.622 1730.2656,126.497 Q1730.2656,123.372 1731.5781,121.7158 Q1732.9063,120.0595 1735.4063,120.0595 Q1736.1094,120.0595 1736.75,120.2158 Q1737.4063,120.372 1737.9688,120.6689 L1737.9688,123.3877 Q1737.3438,122.8095 1736.75,122.5439 Q1736.1563,122.2627 1735.5313,122.2627 Q1734.1875,122.2627 1733.5,123.3408 Q1732.8125,124.4033 1732.8125,126.497 Q1732.8125,128.5908 1733.5,129.6689 Q1734.1875,130.7314 1735.5313,130.7314 Q1736.1563,130.7314 1736.75,130.4658 Q1737.3438,130.1845 1737.9688,129.6064 L1737.9688,132.3252 Z " fill="#000000"/><text fill="#D9B8FF" font-family="Helvetica" font-size="17" lengthAdjust="spacing" textLength="274" x="1754" y="132.5698">gcp_vertex_ai_model_evaluation</text></g><!--class gcp_vertex_ai_training_pipeline--><g id="elem_gcp_vertex_ai_training_pipeline"><rect codeLine="47" fill="#3D176E" height="39.7891" id="gcp_vertex_ai_training_pipeline" rx="2.5" ry="2.5" style="stroke:#000D19;stroke-width:0.5;" width="307" x="2071.5" y="106.79"/><ellipse cx="2086.5" cy="126.6845" fill="#ADD1B2" rx="11" ry="11" style="stroke:#181818;stroke-width:1.0;"/><path d="M2089.4688,132.3252 Q2088.8906,132.622 2088.25,132.7627 Q2087.6094,132.9189 2086.9063,132.9189 Q2084.4063,132.9189 2083.0781,131.2783 Q2081.7656,129.622 2081.7656,126.497 Q2081.7656,123.372 2083.0781,121.7158 Q2084.4063,120.0595 2086.9063,120.0595 Q2087.6094,120.0595 2088.25,120.2158 Q2088.9063,120.372 2089.4688,120.6689 L2089.4688,123.3877 Q2088.8438,122.8095 2088.25,122.5439 Q2087.6563,122.2627 2087.0313,122.2627 Q2085.6875,122.2627 2085,123.3408 Q2084.3125,124.4033 2084.3125,126.497 Q2084.3125,128.5908 2085,129.6689 Q2085.6875,130.7314 2087.0313,130.7314 Q2087.6563,130.7314 2088.25,130.4658 Q2088.8438,130.1845 2089.4688,129.6064 L2089.4688,132.3252 Z " fill="#000000"/><text fill="#D9B8FF" font-family="Helvetica" font-size="17" lengthAdjust="spacing" textLength="265" x="2105.5" y="132.5698">gcp_vertex_ai_training_pipeline</text></g><!--link gcp_vertex_ai_dataset to gcp_vertex_ai_dataset_version--><g id="link_gcp_vertex_ai_dataset_gcp_vertex_ai_dataset_version"><path codeLine="50" d="M806.4,147.01 C820.95,164.15 838.2186,184.4845 852.7586,201.6245 " fill="none" id="gcp_vertex_ai_dataset-to-gcp_vertex_ai_dataset_version" style="stroke:#1A83AF;stroke-width:2.0;"/><polygon fill="#1A83AF" points="856.64,206.2,853.8682,196.7492,853.4055,202.3871,847.7676,201.9244,856.64,206.2" style="stroke:#1A83AF;stroke-width:2.0;"/></g><!--link gcp_vertex_ai_model to gcp_vertex_ai_batch_prediction_job--><g id="link_gcp_vertex_ai_model_gcp_vertex_ai_batch_prediction_job"><path codeLine="51" d="M933.63,40.23 C785.46,56.95 525.4322,86.2778 351.3222,105.9078 " fill="none" id="gcp_vertex_ai_model-to-gcp_vertex_ai_batch_prediction_job" style="stroke:#1A83AF;stroke-width:2.0;"/><polygon fill="#1A83AF" points="345.36,106.58,354.7515,109.5465,350.3285,106.0198,353.8552,101.5969,345.36,106.58" style="stroke:#1A83AF;stroke-width:2.0;"/></g><!--link gcp_vertex_ai_model to gcp_vertex_ai_custom_job--><g id="link_gcp_vertex_ai_model_gcp_vertex_ai_custom_job"><path codeLine="52" d="M937.38,47.28 C844.06,64.4 714.5715,88.1573 621.3115,105.2673 " fill="none" id="gcp_vertex_ai_model-to-gcp_vertex_ai_custom_job" style="stroke:#1A83AF;stroke-width:2.0;"/><polygon fill="#1A83AF" points="615.41,106.35,624.9841,108.6603,620.3279,105.4477,623.5404,100.7916,615.41,106.35" style="stroke:#1A83AF;stroke-width:2.0;"/></g><!--link gcp_vertex_ai_model to gcp_vertex_ai_dataset--><g id="link_gcp_vertex_ai_model_gcp_vertex_ai_dataset"><path codeLine="53" d="M993.02,47.22 C948.66,64.36 889.7961,87.1058 845.4761,104.2458 " fill="none" id="gcp_vertex_ai_model-to-gcp_vertex_ai_dataset" style="stroke:#1A83AF;stroke-width:2.0;"/><polygon fill="#1A83AF" points="839.88,106.41,849.7169,106.8944,844.5434,104.6065,846.8313,99.433,839.88,106.41" style="stroke:#1A83AF;stroke-width:2.0;"/></g><!--link gcp_vertex_ai_model to gcp_vertex_ai_dataset_version--><g id="link_gcp_vertex_ai_model_gcp_vertex_ai_dataset_version"><path codeLine="54" d="M1026.39,47.2 C993.89,84.97 926.1434,163.7119 893.5934,201.5419 " fill="none" id="gcp_vertex_ai_model-to-gcp_vertex_ai_dataset_version" style="stroke:#1A83AF;stroke-width:2.0;"/><polygon fill="#1A83AF" points="889.68,206.09,898.5821,201.8767,892.9411,202.2999,892.5179,196.6589,889.68,206.09" style="stroke:#1A83AF;stroke-width:2.0;"/></g><!--link gcp_vertex_ai_model to gcp_vertex_ai_endpoint--><g id="link_gcp_vertex_ai_model_gcp_vertex_ai_endpoint"><path codeLine="55" d="M1060.19,47.22 C1075.44,64.36 1093.6232,84.7861 1108.8632,101.9261 " fill="none" id="gcp_vertex_ai_model-to-gcp_vertex_ai_endpoint" style="stroke:#1A83AF;stroke-width:2.0;"/><polygon fill="#1A83AF" points="1112.85,106.41,1109.859,97.0263,1109.5276,102.6734,1103.8805,102.3421,1112.85,106.41" style="stroke:#1A83AF;stroke-width:2.0;"/></g><!--link gcp_vertex_ai_model to gcp_vertex_ai_hyperparameter_tuning_job--><g id="link_gcp_vertex_ai_model_gcp_vertex_ai_hyperparameter_tuning_job"><path codeLine="56" d="M1130.59,47.28 C1207.98,64.4 1314.3917,87.9438 1391.7217,105.0538 " fill="none" id="gcp_vertex_ai_model-to-gcp_vertex_ai_hyperparameter_tuning_job" style="stroke:#1A83AF;stroke-width:2.0;"/><polygon fill="#1A83AF" points="1397.58,106.35,1389.6567,100.5001,1392.6981,105.2698,1387.9284,108.3112,1397.58,106.35" style="stroke:#1A83AF;stroke-width:2.0;"/></g><!--link gcp_vertex_ai_model to gcp_vertex_ai_model_evaluation--><g id="link_gcp_vertex_ai_model_gcp_vertex_ai_model_evaluation"><path codeLine="57" d="M1152.16,40.68 C1296.94,57.64 1547.5207,86.9821 1713.6107,106.4321 " fill="none" id="gcp_vertex_ai_model-to-gcp_vertex_ai_model_evaluation" style="stroke:#1A83AF;stroke-width:2.0;"/><polygon fill="#1A83AF" points="1719.57,107.13,1711.0963,102.1104,1714.6039,106.5484,1710.1658,110.0561,1719.57,107.13" style="stroke:#1A83AF;stroke-width:2.0;"/></g><!--link gcp_vertex_ai_model to gcp_vertex_ai_training_pipeline--><g id="link_gcp_vertex_ai_model_gcp_vertex_ai_training_pipeline"><path codeLine="58" d="M1152.31,35.27 C1337.86,48.04 1726.23,75.9 2054,106.79 C2059.65,107.32 2059.4297,107.284 2065.2397,107.864 " fill="none" id="gcp_vertex_ai_model-to-gcp_vertex_ai_training_pipeline" style="stroke:#1A83AF;stroke-width:2.0;"/><polygon fill="#1A83AF" points="2071.21,108.46,2062.6518,103.5858,2066.2347,107.9633,2061.8572,111.5462,2071.21,108.46" style="stroke:#1A83AF;stroke-width:2.0;"/></g><!--SRC=[dPDDJy9048Rl_HMRS2QX4WKk9aX2z4ACU3EccNQdTANTRNQd81h_kosWrdviKwuppyoyx-ni93WoJ58wi0GJ7xLnp5R853GaRAwrsYzKh3GRX264uqarkLIIEe4L9CZkCTuXYG2gn7CaWgr4OzXLANK7mNQZLIRvgJrfa2PFeQGIjOZ1c3cH5dv6M1B3P_uq3AjajUbWpDt93TOmfJdgCp8QZRWxgoATewo-Vucr-43cbfUsKeGrcRKHHyggiY1A8cj6V_Aj6X-1So4txBeKUpffqXBrl_Ww0gxs1Hr2RCfZ3A56HOSK5pLNE9loSD88FxJ1Jb2iZcs2rDkX9dptG7W-K11vgKOk0X9AUc_APv-EyzL81vaXbTWP3WG6gHCe8YQVs0wYvAaIqj8goltgum8mz-zH9lD5skKbYcFSaVPm1t46P5MN_ofn79UA56CXyOGsBsFuCd3dq_5y-JgyjQ_3QP9hAMzwmBuz_fwrR-LP_8Lbbth-EOo-TQtdqhTHzKhwrjTkn_a6]--></g></svg>

<svg xmlns="http://www.w3.org/2000/svg" width="2385" height="252" viewBox="0 0 2385 252"><rect width="338" height="39.789" x="7" y="106.79" fill="#3D176E" rx="2.5" ry="2.5" style="stroke:#000d19;stroke-width:.5"/><circle cx="22" cy="126.684" r="11" fill="#ADD1B2" style="stroke:#181818;stroke-width:1"/><path d="M24.969 132.325q-.578.297-1.219.438-.64.156-1.344.156-2.5 0-3.828-1.64-1.312-1.657-1.312-4.782t1.312-4.781q1.328-1.656 3.828-1.656.703 0 1.344.156.656.156 1.219.453v2.719q-.625-.579-1.219-.844-.594-.281-1.219-.281-1.343 0-2.031 1.078-.687 1.062-.687 3.156t.687 3.172q.688 1.062 2.031 1.062.625 0 1.219-.265.594-.281 1.219-.86z"/><text x="41" y="132.57" fill="#D9B8FF" font-family="Helvetica" font-size="17" textLength="296">gcp_vertex_ai_batch_prediction_job</text><rect width="261" height="39.789" x="379.5" y="106.79" fill="#3D176E" rx="2.5" ry="2.5" style="stroke:#000d19;stroke-width:.5"/><circle cx="394.5" cy="126.684" r="11" fill="#ADD1B2" style="stroke:#181818;stroke-width:1"/><path d="M397.469 132.325q-.578.297-1.219.438-.64.156-1.344.156-2.5 0-3.828-1.64-1.312-1.657-1.312-4.782t1.312-4.781q1.328-1.656 3.828-1.656.703 0 1.344.156.656.156 1.219.453v2.719q-.625-.579-1.219-.844-.594-.281-1.219-.281-1.344 0-2.031 1.078-.687 1.062-.687 3.156t.687 3.172q.688 1.062 2.031 1.062.625 0 1.219-.265.594-.281 1.219-.86z"/><text x="413.5" y="132.57" fill="#D9B8FF" font-family="Helvetica" font-size="17" textLength="219">gcp_vertex_ai_custom_job</text><rect width="228" height="39.789" x="676" y="106.79" fill="#3D176E" rx="2.5" ry="2.5" style="stroke:#000d19;stroke-width:.5"/><circle cx="691" cy="126.684" r="11" fill="#ADD1B2" style="stroke:#181818;stroke-width:1"/><path d="M693.969 132.325q-.578.297-1.219.438-.64.156-1.344.156-2.5 0-3.828-1.64-1.312-1.657-1.312-4.782t1.312-4.781q1.328-1.656 3.828-1.656.703 0 1.344.156.656.156 1.219.453v2.719q-.625-.579-1.219-.844-.594-.281-1.219-.281-1.343 0-2.031 1.078-.687 1.062-.687 3.156t.687 3.172q.688 1.062 2.031 1.062.625 0 1.219-.265.594-.281 1.219-.86z"/><text x="710" y="132.57" fill="#D9B8FF" font-family="Helvetica" font-size="17" textLength="186">gcp_vertex_ai_dataset</text><rect width="298" height="39.789" x="724" y="206.58" fill="#3D176E" rx="2.5" ry="2.5" style="stroke:#000d19;stroke-width:.5"/><circle cx="739" cy="226.475" r="11" fill="#ADD1B2" style="stroke:#181818;stroke-width:1"/><path d="M741.969 232.115q-.578.297-1.219.438-.64.156-1.344.156-2.5 0-3.828-1.64-1.312-1.657-1.312-4.782t1.312-4.781q1.328-1.656 3.828-1.656.703 0 1.344.156.656.156 1.219.453v2.719q-.625-.578-1.219-.844-.594-.281-1.219-.281-1.343 0-2.031 1.078-.687 1.062-.687 3.156t.687 3.172q.688 1.062 2.031 1.062.625 0 1.219-.265.594-.281 1.219-.86z"/><text x="758" y="232.36" fill="#D9B8FF" font-family="Helvetica" font-size="17" textLength="256">gcp_vertex_ai_dataset_version</text><rect width="240" height="39.789" x="1010" y="106.79" fill="#3D176E" rx="2.5" ry="2.5" style="stroke:#000d19;stroke-width:.5"/><circle cx="1025" cy="126.684" r="11" fill="#ADD1B2" style="stroke:#181818;stroke-width:1"/><path d="M1027.969 132.325q-.578.297-1.219.438-.64.156-1.344.156-2.5 0-3.828-1.64-1.312-1.657-1.312-4.782t1.312-4.781q1.328-1.656 3.828-1.656.703 0 1.344.156.656.156 1.219.453v2.719q-.625-.579-1.219-.844-.594-.281-1.219-.281-1.343 0-2.031 1.078-.687 1.062-.687 3.156t.687 3.172q.688 1.062 2.031 1.062.625 0 1.219-.265.594-.281 1.219-.86z"/><text x="1044" y="132.57" fill="#D9B8FF" font-family="Helvetica" font-size="17" textLength="198">gcp_vertex_ai_endpoint</text><rect width="400" height="39.789" x="1285" y="106.79" fill="#3D176E" rx="2.5" ry="2.5" style="stroke:#000d19;stroke-width:.5"/><circle cx="1300" cy="126.684" r="11" fill="#ADD1B2" style="stroke:#181818;stroke-width:1"/><path d="M1302.969 132.325q-.578.297-1.219.438-.64.156-1.344.156-2.5 0-3.828-1.64-1.312-1.657-1.312-4.782t1.312-4.781q1.328-1.656 3.828-1.656.703 0 1.344.156.656.156 1.219.453v2.719q-.625-.579-1.219-.844-.594-.281-1.219-.281-1.343 0-2.031 1.078-.687 1.062-.687 3.156t.687 3.172q.688 1.062 2.031 1.062.625 0 1.219-.265.594-.281 1.219-.86z"/><text x="1319" y="132.57" fill="#D9B8FF" font-family="Helvetica" font-size="17" textLength="358">gcp_vertex_ai_hyperparameter_tuning_job</text><rect width="218" height="39.789" x="934" y="7" fill="#3D176E" rx="2.5" ry="2.5" style="stroke:#000d19;stroke-width:.5"/><circle cx="949" cy="26.895" r="11" fill="#ADD1B2" style="stroke:#181818;stroke-width:1"/><path d="M951.969 32.535q-.578.297-1.219.438-.64.156-1.344.156-2.5 0-3.828-1.64-1.312-1.657-1.312-4.782t1.312-4.781q1.328-1.656 3.828-1.656.703 0 1.344.156.656.156 1.219.453v2.719q-.625-.578-1.219-.844-.594-.281-1.219-.281-1.343 0-2.031 1.078-.687 1.062-.687 3.156t.687 3.172q.688 1.062 2.031 1.062.625 0 1.219-.265.594-.281 1.219-.86z"/><text x="968" y="32.78" fill="#D9B8FF" font-family="Helvetica" font-size="17" textLength="176">gcp_vertex_ai_model</text><rect width="316" height="39.789" x="1720" y="106.79" fill="#3D176E" rx="2.5" ry="2.5" style="stroke:#000d19;stroke-width:.5"/><circle cx="1735" cy="126.684" r="11" fill="#ADD1B2" style="stroke:#181818;stroke-width:1"/><path d="M1737.969 132.325q-.578.297-1.219.438-.64.156-1.344.156-2.5 0-3.828-1.64-1.312-1.657-1.312-4.782t1.312-4.781q1.328-1.656 3.828-1.656.703 0 1.344.156.656.156 1.219.453v2.719q-.625-.579-1.219-.844-.594-.281-1.219-.281-1.343 0-2.031 1.078-.687 1.062-.687 3.156t.687 3.172q.688 1.062 2.031 1.062.625 0 1.219-.265.594-.281 1.219-.86z"/><text x="1754" y="132.57" fill="#D9B8FF" font-family="Helvetica" font-size="17" textLength="274">gcp_vertex_ai_model_evaluation</text><rect width="307" height="39.789" x="2071.5" y="106.79" fill="#3D176E" rx="2.5" ry="2.5" style="stroke:#000d19;stroke-width:.5"/><circle cx="2086.5" cy="126.684" r="11" fill="#ADD1B2" style="stroke:#181818;stroke-width:1"/><path d="M2089.469 132.325q-.578.297-1.219.438-.64.156-1.344.156-2.5 0-3.828-1.64-1.312-1.657-1.312-4.782t1.312-4.781q1.328-1.656 3.828-1.656.703 0 1.344.156.656.156 1.219.453v2.719q-.625-.579-1.219-.844-.594-.281-1.219-.281-1.343 0-2.031 1.078-.687 1.062-.687 3.156t.687 3.172q.688 1.062 2.031 1.062.625 0 1.219-.265.594-.281 1.219-.86z"/><text x="2105.5" y="132.57" fill="#D9B8FF" font-family="Helvetica" font-size="17" textLength="265">gcp_vertex_ai_training_pipeline</text><path fill="none" d="M806.4 147.01c14.55 17.14 31.819 37.475 46.359 54.615" style="stroke:#1a83af;stroke-width:2"/><path fill="#1A83AF" d="m856.64 206.2-2.772-9.45-.463 5.637-5.637-.463z" style="stroke:#1a83af;stroke-width:2"/><path fill="none" d="M933.63 40.23c-148.17 16.72-408.198 46.048-582.308 65.678" style="stroke:#1a83af;stroke-width:2"/><path fill="#1A83AF" d="m345.36 106.58 9.392 2.966-4.423-3.526 3.526-4.423z" style="stroke:#1a83af;stroke-width:2"/><path fill="none" d="m937.38 47.28-316.068 57.987" style="stroke:#1a83af;stroke-width:2"/><path fill="#1A83AF" d="m615.41 106.35 9.574 2.31-4.656-3.212 3.212-4.656z" style="stroke:#1a83af;stroke-width:2"/><path fill="none" d="M993.02 47.22c-44.36 17.14-103.224 39.886-147.544 57.026" style="stroke:#1a83af;stroke-width:2"/><path fill="#1A83AF" d="m839.88 106.41 9.837.484-5.174-2.288 2.288-5.173z" style="stroke:#1a83af;stroke-width:2"/><path fill="none" d="M1026.39 47.2c-32.5 37.77-100.247 116.512-132.797 154.342" style="stroke:#1a83af;stroke-width:2"/><path fill="#1A83AF" d="m889.68 206.09 8.902-4.213-5.64.423-.424-5.641z" style="stroke:#1a83af;stroke-width:2"/><path fill="none" d="M1060.19 47.22c15.25 17.14 33.433 37.566 48.673 54.706" style="stroke:#1a83af;stroke-width:2"/><path fill="#1A83AF" d="m1112.85 106.41-2.991-9.384-.331 5.647-5.648-.33z" style="stroke:#1a83af;stroke-width:2"/><path fill="none" d="M1130.59 47.28c77.39 17.12 183.802 40.664 261.132 57.774" style="stroke:#1a83af;stroke-width:2"/><path fill="#1A83AF" d="m1397.58 106.35-7.923-5.85 3.041 4.77-4.77 3.041z" style="stroke:#1a83af;stroke-width:2"/><path fill="none" d="M1152.16 40.68c144.78 16.96 395.36 46.302 561.45 65.752" style="stroke:#1a83af;stroke-width:2"/><path fill="#1A83AF" d="m1719.57 107.13-8.474-5.02 3.508 4.438-4.438 3.508z" style="stroke:#1a83af;stroke-width:2"/><path fill="none" d="M1152.31 35.27c185.55 12.77 573.92 40.63 901.69 71.52 5.65.53 5.43.494 11.24 1.074" style="stroke:#1a83af;stroke-width:2"/><path fill="#1A83AF" d="m2071.21 108.46-8.558-4.874 3.583 4.377-4.378 3.583z" style="stroke:#1a83af;stroke-width:2"/></svg>
